X:28
T:Voulez-vous que je vous chante 
R:Chanson
O:France
B:Le livre des Chansons (Henri Davenson) n28
Z:<anamnese@laposte.net> -- http://anamnese.fr.st
M:3/4
L:1/4
Q:1/2=110
K:F
G2 A | G2 F | B2 c | d2 z | d2 e | f2 d | (fe)d | c2 z | B2 A |
B2 c | A3 | A2 z | A2 B | c2 d | c2 A | F2 z | G2 A | B2 d | c2 A | 
F2 z | G B A | (G A) F | G3 | G2 z ||
W:Voulez-vous que je vous chant
W:Un son d'amour avenant  
W:Vilain ne'l fist mie.
W:Ainz le fist un chevalier
W:Sous l'ombre d'un olivier
W:Entre les bras sa mie.
W:
W:
